X: 988
T: Haydi Biraz Gülümse
C: Ömer Sami Güpgüp
O: Turkey
F: http://compmusic.upf.edu/node/140
N: rast--fantezi--duyek--haydi_biraz--omer_sami_gupgup
N: makam= rast
N: form= fantezi
N: usul= duyek = 8/4
M: 8/4
L: 1/16
K: C _1/4B ^f  
Q: 1/4=156
%%MIDI tuningsystem comma53
z2 G4 G2 G2 G6  | A2 B4 G2 AB AB G4  | \
w:  Hay di  bi raz   |  gü lüm se   SAZ  | 
B2 c4 B2 A4 z4  | B2 B2 B3d d4 z4  | 
w:  Şu  gön *  lüm   |  o ya lan *  sın    | 
z2 d4 e2 f2 g6  | f2 g4 d2 de de c4  | \
w:  Hay di  bi raz   |  gü lüm se   SAZ  | 
e2 d4 c2 B4 z4  | A2 B2 c2 BA G8  | 
w:  Şu  gön *  lüm   |  o ya lan *  *  sın    | 
z2 G4 G2 G2 G6  | A2 B4 G2 AB AB G4  | \
w:  Hay di  bi raz   |  gü lüm se   SAZ  | 
B2 c4 B2 A4 z4  | B2 B2 B3d d4 z4  | 
w:  Şu  gön *  lüm   |  o ya lan *  sın    | 
z2 d4 e2 f2 g6  | f2 g4 d2 de de c4  | \
w:  Hay di  bi raz   |  gü lüm se   SAZ  | 
a2 g4 =f2 e4 d4  | d2 c2 B3d d8  | 
w:  Şu  gön *  lüm   |  o ya lan *  sın    | 
z2 g4 g2 g2 =f2 e2 d2  | d2 e2 d2 c2 BA Bc d4  | \
w:  SAZ  |   | 
e2 =f6 f4 f4  | e2 g4 e2 e=f ef d4  | 
w:  E ğer  sev mek   |  ya lan sa   SAZ  | 
e4 g4 e2 d4 e2  | d2 c6 B8  | B2 c6 c4 B4  | \
w:  Sen  en  tat *  lı   |  ya lan sın    |  E ğer  sev mek   | 
A2 B4 A2 AB AB G4  | B4 c4 d6 _3/4e2  | 
w:  ya lan sa   SAZ  |  Sen  en  tat lı   | 
d2 f4 _3/4e2 d4 =f4  | e2 =f6 f4 f4  | \
w:  ya lan *  sın    |  E ğer  sev mek   | 
e2 g4 e2 e=f ef d4  | e4 g4 e2 d4 e2  | 
w:  ya lan sa   SAZ  |  Sen  en  tat *  lı   | 
d2 c6 B8  | B2 c6 c4 B4  | A2 B4 A2 AB AB G4  | \
w:  ya lan sın    |  E ğer  sev mek   |  ya lan sa   SAZ  | 
e4 d4 c6 B2  | A2 B4 A2 G8  | 
w:  Sen  en  tat lı   |  ya lan *  sın    | 
z2 g4 g2 g2 ^9/8f2 f2 e2  | e2 d2 e2 ^9/8f2 g2 f2 g4  | \
w:  SAZ  |   | 
z2 g4 g2 g4 g2 ^9/8f2  | z2 e4 ^9/8f2 g8  | 
w:  İlk  gö rüş te   |  kan dı ğım    | 
z2 g4 a2 a2 a2 g2 ^9/8f2  | z2 g4 e2 d8  | \
w:  Hû ri  me lek   |  san dı ğım    | 
z4 e2 =f2 f6 e2  | z2 d4 c2 e8  | d4 _3/4e4 e6 d2  | 
w:  A te şin de   |  yan dı ğım    |  Sen  en  tat lı   | 
d2 f4 _3/4e2 d4 g4  | z2 g4 g2 g4 g2 ^9/8f2  | \
w:  ya lan *  sın    |  İlk  gö rüş te   | 
z2 e4 ^9/8f2 g8  | z2 g4 a2 a2 a2 g2 ^9/8f2  | 
w:  kan dı ğım    |  Hû ri  me lek   | 
z2 g4 e2 d8  | z4 e2 =f2 f6 e2  | z2 d4 c2 e8  | \
w:  san dı ğım    |  A te şin de   |  yan dı ğım    | 
e4 d4 c6 B2  | A2 B4 A2 G8  | 
w:  Sen  en  tat lı   |  ya lan *  sın    | 
z2 g4 g2 g2 =f2 e2 d2  | d2 e2 d2 c2 BA Bc d4  | \
w:  SAZ  |   | 
e2 =f6 f4 f4  | e2 g4 e2 e=f ef d4  | 
w:  E ğer  sev mek   |  ya lan sa   SAZ  | 
e4 g4 e2 d4 e2  | d2 c6 B8  | B2 c6 c4 B4  | \
w:  Sen  en  tat *  lı   |  ya lan sın    |  E ğer  sev mek   | 
A2 B4 A2 AB AB G4  | B4 c4 d6 _3/4e2  | 
w:  ya lan sa   SAZ  |  Sen  en  tat lı   | 
d2 f4 _3/4e2 d4 =f4  | e2 =f6 f4 f4  | \
w:  ya lan *  sın    |  E ğer  sev mek   | 
e2 g4 e2 e=f ef d4  | e4 g4 e2 d4 e2  | 
w:  ya lan sa   SAZ  |  Sen  en  tat *  lı   | 
d2 c6 B8  | B2 c6 c4 B4  | A2 B4 A2 AB AB G4  | \
w:  ya lan sın    |  E ğer  sev mek   |  ya lan sa   SAZ  | 
e4 d4 c6 B2  | A2 B4 A2 G8  | 
w:  Sen  en  tat lı   |  ya lan *  sın    | 
|


